src/assets/images/core5.svg

<svg width="57" height="57" viewBox="0 0 57 57" fill="none" xmlns="http://www.w3.org/2000/svg">
<circle cx="28.5" cy="28.5" r="28.5" fill="#7A9FFF"/>
<path fill-rule="evenodd" clip-rule="evenodd" d="M32.7635 19.5242C32.6831 19.4313 32.5822 19.3582 32.4689 19.3106C32.3556 19.263 32.2327 19.2422 32.1101 19.2499C31.9874 19.2576 31.8681 19.2936 31.7616 19.3549C31.6551 19.4163 31.5642 19.5015 31.496 19.6037L31.1495 20.1242L30.341 21.7412C30.0772 22.2689 29.6717 22.7127 29.17 23.023C28.6682 23.3332 28.0899 23.4976 27.5 23.4977H26C25.8011 23.4977 25.6103 23.4187 25.4697 23.2781C25.329 23.1374 25.25 22.9467 25.25 22.7477C25.25 22.5488 25.329 22.3581 25.4697 22.2174C25.6103 22.0768 25.8011 21.9977 26 21.9977H27.5C28.1345 21.9977 28.715 21.6407 29 21.0722L29.8295 19.4132C29.8429 19.3859 29.8579 19.3593 29.8745 19.3337L30.2495 18.7742C30.4457 18.4799 30.7073 18.2349 31.0137 18.0582C31.3202 17.8815 31.6633 17.7779 32.0163 17.7556C32.3693 17.7332 32.7228 17.7927 33.0491 17.9293C33.3754 18.0659 33.6657 18.276 33.8975 18.5432C34.4225 19.1507 34.688 19.9412 34.6355 20.7422L34.6235 20.9237C34.5691 21.7345 34.4113 22.535 34.154 23.3057L34.0895 23.4977H36.749C37.2299 23.4974 37.7026 23.623 38.1198 23.8622C38.5371 24.1013 38.8844 24.4456 39.1272 24.8608C39.37 25.2759 39.4997 25.7474 39.5036 26.2283C39.5074 26.7093 39.3851 27.1828 39.149 27.6017L38.972 27.9167C39.2615 28.9217 38.99 30.0182 38.2355 30.7727L38.093 30.9152C38.462 32.4002 37.718 33.9287 36.3515 34.5662L36.1865 35.0612C35.9986 35.6251 35.638 36.1156 35.1558 36.4631C34.6737 36.8107 34.0944 36.9977 33.5 36.9977H32.1185C30.9376 36.998 29.7728 36.7232 28.7165 36.1952C27.6161 35.6448 26.6118 34.9205 25.742 34.0502L25.469 33.7787C25.3282 33.6381 25.249 33.4473 25.2488 33.2483C25.2487 33.0493 25.3276 32.8583 25.4683 32.7175C25.6089 32.5767 25.7997 32.4975 25.9987 32.4973C26.1977 32.4972 26.3887 32.5761 26.5295 32.7167L26.8025 32.9897C27.5583 33.7456 28.431 34.3747 29.387 34.8527C30.2346 35.2767 31.1693 35.4976 32.117 35.4977H33.5C33.7795 35.4979 34.0519 35.41 34.2786 35.2465C34.5053 35.0831 34.6748 34.8524 34.763 34.5872L35.0315 33.7832C35.0707 33.6659 35.1366 33.5593 35.2241 33.4719C35.3116 33.3844 35.4182 33.3184 35.5355 33.2792C36.395 32.9927 36.8735 32.0762 36.617 31.2062L36.539 30.9392C36.4981 30.8008 36.4953 30.6538 36.531 30.5139C36.5666 30.374 36.6394 30.2463 36.7415 30.1442L37.175 29.7122C37.3753 29.512 37.5102 29.2557 37.5619 28.9772C37.6135 28.6987 37.5796 28.4111 37.4645 28.1522C37.4171 28.0455 37.3952 27.9292 37.4007 27.8125C37.4061 27.6959 37.4388 27.5821 37.496 27.4802L37.841 26.8652C37.948 26.6745 38.0032 26.4592 38.0013 26.2405C37.9993 26.0219 37.9402 25.8075 37.8298 25.6188C37.7195 25.43 37.5616 25.2734 37.372 25.1644C37.1824 25.0555 36.9677 24.998 36.749 24.9977H33.809C33.6035 24.9979 33.4008 24.9491 33.2179 24.8555C33.0349 24.7619 32.8768 24.6261 32.7566 24.4594C32.6365 24.2926 32.5577 24.0997 32.5268 23.8965C32.4959 23.6933 32.5138 23.4857 32.579 23.2907L32.732 22.8302C32.9484 22.1808 33.081 21.5063 33.1265 20.8232L33.1385 20.6417C33.1658 20.2344 33.031 19.8327 32.7635 19.5242ZM23 22.9682C23 22.8887 22.9684 22.8124 22.9121 22.7561C22.8559 22.6999 22.7796 22.6682 22.7 22.6682H20.3C20.2204 22.6682 20.1441 22.6999 20.0879 22.7561C20.0316 22.8124 20 22.8887 20 22.9682V33.0272C20 33.1922 20.135 33.3272 20.3 33.3272H22.7C22.7796 33.3272 22.8559 33.2956 22.9121 33.2394C22.9684 33.1831 23 33.1068 23 33.0272V22.9682ZM20 21.2477C19.172 21.2477 18.5 21.8837 18.5 22.6682V33.3272C18.5 34.1117 19.172 34.7477 20 34.7477H23C23.828 34.7477 24.5 34.1117 24.5 33.3272V22.6682C24.5 21.8837 23.828 21.2477 23 21.2477H20Z" fill="white"/>
</svg>

<svg xmlns="http://www.w3.org/2000/svg" width="57" height="57" fill="none"><circle cx="28.5" cy="28.5" r="28.5" fill="#7A9FFF"/><path fill="#fff" fill-rule="evenodd" d="M32.764 19.524a.8.8 0 0 0-1.268.08l-.346.52-.809 1.617a3.18 3.18 0 0 1-2.841 1.757H26a.75.75 0 1 1 0-1.5h1.5c.634 0 1.215-.357 1.5-.926l.83-1.659a1 1 0 0 1 .045-.08l.375-.559a2.298 2.298 0 0 1 3.648-.23c.524.607.79 1.397.737 2.198l-.011.182a9.5 9.5 0 0 1-.47 2.382l-.065.192h2.66a2.753 2.753 0 0 1 2.4 4.104l-.177.315a2.9 2.9 0 0 1-.736 2.856l-.143.142a3.186 3.186 0 0 1-1.742 3.651l-.164.495a2.83 2.83 0 0 1-2.687 1.937h-1.382a7.6 7.6 0 0 1-3.402-.803 11.4 11.4 0 0 1-2.974-2.145l-.273-.271a.75.75 0 0 1 1.06-1.062l.273.273a10 10 0 0 0 2.585 1.863 6.1 6.1 0 0 0 2.73.645H33.5a1.33 1.33 0 0 0 1.263-.91l.269-.805a.8.8 0 0 1 .504-.504 1.683 1.683 0 0 0 1.081-2.073l-.078-.267a.8.8 0 0 1 .203-.795l.433-.432a1.4 1.4 0 0 0 .29-1.56.75.75 0 0 1 .031-.672l.345-.615a1.254 1.254 0 0 0-1.092-1.867h-2.94a1.295 1.295 0 0 1-1.23-1.707l.153-.46c.216-.65.349-1.325.395-2.008l.011-.181a1.55 1.55 0 0 0-.374-1.118M23 22.968a.3.3 0 0 0-.3-.3h-2.4a.3.3 0 0 0-.3.3v10.06a.3.3 0 0 0 .3.3h2.4a.3.3 0 0 0 .3-.3zm-3-1.72c-.828 0-1.5.636-1.5 1.42v10.66c0 .784.672 1.42 1.5 1.42h3c.828 0 1.5-.636 1.5-1.42v-10.66c0-.784-.672-1.42-1.5-1.42z" clip-rule="evenodd"/></svg>
